public/images/logo1.svg

<svg width="50" height="51" viewBox="0 0 50 51" fill="none" xmlns="http://www.w3.org/2000/svg">
<g clip-path="url(#clip0_345_141)">
<path d="M19.155 29.6948C19.2448 29.4278 19.2613 29.1415 19.2026 28.8659C19.144 28.5903 19.0124 28.3355 18.8217 28.1282C18.55 27.9615 18.0667 27.2765 17.4483 27.8181C16.83 28.3598 16.635 28.8181 16.2483 28.9848C15.9433 29.1159 15.6462 29.2644 15.3583 29.4298C15.2234 29.4619 15.097 29.5227 14.9876 29.6079C14.8782 29.6931 14.7884 29.8009 14.7242 29.9238C14.6601 30.0468 14.6231 30.182 14.6157 30.3205C14.6084 30.459 14.6309 30.5974 14.6817 30.7265C15.2409 31.6591 15.9616 32.4847 16.81 33.1648C17.3317 33.5132 18.2617 32.9515 18.455 32.2548C18.6143 31.3829 18.8485 30.5265 19.155 29.6948Z" fill="white"/>
<path d="M15.7966 42.9766C14.3475 44.1073 12.9827 45.3423 11.7133 46.6716C12.6814 47.2812 13.6898 47.8241 14.7316 48.2966C15.6955 47.2712 16.5512 46.1492 17.285 44.9483C18.0016 43.44 16.57 42.5316 15.7966 42.9766Z" fill="white"/>
<path d="M11.9817 35.0262C11.015 34.1929 10.995 33.9612 10.0667 34.5046C9.13834 35.0479 9.17667 34.8146 8.94501 35.0262C8.71334 35.2379 5.92668 37.9679 5.42334 38.4513L4.32001 39.4762C4.83563 40.2347 5.39201 40.9647 5.98667 41.6629C6.74167 40.8696 7.67001 39.9596 8.19334 39.4762C8.82834 38.7803 9.5504 38.1692 10.3417 37.6579C10.8604 37.538 11.3358 37.2766 11.715 36.9029C12.4217 36.3229 12.945 35.8779 11.9817 35.0262Z" fill="white"/>
<path d="M6.56002 29.8714C6.03836 30.2781 2.53502 33.5098 1.80002 34.1481L1.60669 34.3031C1.97795 35.2904 2.41103 36.2535 2.90336 37.1864C3.25169 36.7797 3.58002 36.3931 3.83169 36.1414C4.39336 35.5997 6.71502 33.3347 7.58502 32.6414C8.45502 31.9481 8.65002 31.4748 8.28169 30.7648C7.91336 30.0548 7.08336 29.4647 6.56002 29.8714Z" fill="white"/>
<path d="M30.975 15.7401C31.0717 15.3151 30.53 14.6185 30.065 14.9068C29.6 15.1951 28.7684 16.1451 27.975 16.8418C27.1817 17.5385 26.3684 18.1968 26.3684 18.1968C25.8406 18.8099 25.362 19.4636 24.9367 20.1518C24.665 20.5768 24.6467 20.8684 25.0917 21.0618C25.5367 21.2551 27.2984 20.9851 28.3617 21.6818C29.425 22.3785 30.0284 22.5151 30.4134 22.2818C30.7984 22.0485 30.685 21.4118 30.49 20.7718C30.3863 19.6523 30.4845 18.5232 30.78 17.4385C30.8945 16.8791 30.9598 16.3108 30.975 15.7401Z" fill="white"/>
<path d="M15.2867 38.7204C15.2092 38.3011 14.9725 37.9281 14.626 37.6795C14.2796 37.4309 13.8504 37.3261 13.4284 37.3871C12.6734 37.5804 12.0734 38.6254 12.0734 38.6254C12.0734 38.6254 10.3317 40.2121 9.32502 41.0837L7.23669 42.9571C7.90905 43.6417 8.61963 44.2878 9.36503 44.8921C9.93842 44.1918 10.5505 43.5241 11.1984 42.8921C11.6984 42.4471 13.4434 40.7437 13.9067 40.4737C14.37 40.2037 15.5184 39.6671 15.2867 38.7204Z" fill="white"/>
<path d="M40.0734 6.1552C39.74 6.4452 38.6217 7.37353 38.4867 7.54853C38.3517 7.72353 37.7317 8.14853 38.7967 8.78686C39.7029 9.34243 40.7528 9.61839 41.815 9.5802C42.79 9.6492 43.7491 9.86438 44.66 10.2185C43.3814 8.57995 41.9065 7.10448 40.2684 5.8252C40.2265 5.94793 40.1608 6.06121 40.075 6.15853L40.0734 6.1552Z" fill="white"/>
<path d="M3.94665 26.7781C5.04484 25.6075 6.3177 24.6141 7.71998 23.8331C9.22998 23.0397 9.92665 23.6981 10.9316 24.4531C11.9366 25.2081 12.2083 25.0331 12.765 24.4731C13.3216 23.9131 13.0366 23.2547 13.1333 22.3631C13.23 21.4714 13.23 19.0147 13.405 17.8147C13.58 16.6147 13.425 16.1114 14.47 15.1831C15.515 14.2547 16.85 14.4481 18.36 14.5247C19.739 14.7103 21.0747 15.1362 22.3066 15.7831C22.9278 16.1874 23.6005 16.5064 24.3066 16.7314C24.5847 16.7431 24.8592 16.6647 25.0892 16.508C25.3192 16.3512 25.4925 16.1245 25.5833 15.8614C25.66 15.5714 25.4866 14.1581 25.5833 13.6547C25.68 13.1514 25.66 10.6747 25.68 10.2497C25.6614 8.24012 25.9739 6.24115 26.605 4.33308C27.0883 2.93975 27.2433 2.66641 27.8433 2.68808C28.4433 2.70975 30.455 2.49975 32.255 2.54975C33.7519 2.6852 35.2383 2.91791 36.705 3.24641C32.5429 1.13719 27.8783 0.221241 23.2277 0.60004C18.5771 0.978839 14.1221 2.6376 10.3563 5.39256C6.59046 8.14753 3.66074 11.8912 1.89166 16.2088C0.12259 20.5264 -0.416776 25.2494 0.333314 29.8547C2.10831 28.3847 3.77331 26.9331 3.94665 26.7781Z" fill="white"/>
<path d="M34.4683 15.9217C34.5198 16.0221 34.5946 16.1088 34.6865 16.1745C34.7783 16.2401 34.8845 16.2829 34.9962 16.2992C35.1079 16.3155 35.2219 16.3049 35.3287 16.2682C35.4354 16.2315 35.5319 16.1699 35.61 16.0884C36.11 15.6634 37.7583 14.0367 38.145 13.755C38.5316 13.4734 38.9783 13.0967 38.59 12.6717C37.9673 12.0214 37.2414 11.4785 36.4416 11.065C36.055 11.0067 35.6483 10.755 35.275 11.1417C34.9016 11.5284 33.8816 12.4184 33.8816 12.4184C33.5412 12.8751 33.3703 13.4361 33.3983 14.005C33.6221 14.7095 33.9861 15.3615 34.4683 15.9217Z" fill="white"/>
<path d="M46.6133 24.3013C45.8326 24.2258 45.1017 23.8839 44.5433 23.333C43.8606 22.5324 43.294 21.6398 42.86 20.6813C42.395 19.7713 41.1567 18.863 40.925 18.243C40.6933 17.623 41.235 17.798 41.8733 17.818L42.725 17.6046C43.1317 17.4696 44.2533 17.0246 44.95 16.6946C45.6426 16.4096 46.2935 16.0323 46.885 15.573L47.775 14.8763C47.2536 13.721 46.6458 12.6068 45.9567 11.543C45.6467 12.043 43.6733 12.8396 43.3633 13.053C42.7953 13.5791 42.2012 14.0764 41.5833 14.543C40.9408 14.9605 40.2606 15.3171 39.5517 15.608C38.42 16.5822 37.3533 17.6294 36.3583 18.743C35.8934 19.188 35.255 19.7113 34.8883 20.1363C34.5217 20.5613 34.4817 21.123 33.7217 21.703C33.5083 21.8696 33.3733 22.168 33.18 22.323C32.8986 22.4876 32.6271 22.6685 32.3667 22.8646C32.095 23.1163 31.3667 22.9613 31.1484 23.1546C30.9329 23.3129 30.7701 23.5323 30.6809 23.7844C30.5917 24.0364 30.5804 24.3094 30.6483 24.568C30.6483 24.993 29.99 25.323 29.875 25.593C29.76 25.863 29.585 26.5413 29.8367 26.8513C30.0883 27.1613 30.5334 27.993 31.1917 28.283C32.0655 28.7991 32.8659 29.4303 33.5717 30.1596C34.385 30.9146 34.4617 31.3013 34.2484 32.598C34.172 32.8759 34.0385 33.1348 33.8565 33.3583C33.6745 33.5818 33.448 33.7649 33.1913 33.896C32.9346 34.0271 32.6534 34.1033 32.3657 34.1197C32.0779 34.1361 31.7899 34.0924 31.52 33.9913C30.455 33.7013 30.1267 32.4046 29.9917 31.3246C29.7521 30.0979 29.3891 28.8984 28.9083 27.7446C28.8668 27.5997 28.7902 27.4673 28.6853 27.3591C28.5803 27.2508 28.4503 27.1702 28.3068 27.1242C28.1632 27.0782 28.0106 27.0683 27.8623 27.0954C27.714 27.1226 27.5747 27.1858 27.4567 27.2796C26.1178 28.3913 24.8633 29.6007 23.7033 30.898C23.4173 31.1588 23.2219 31.504 23.1455 31.8834C23.0691 32.2629 23.1156 32.6568 23.2784 33.008C23.4334 33.5696 24.1683 34.033 24.5167 34.363C25.266 34.8255 26.0815 35.1712 26.935 35.388C27.555 35.543 28.3084 35.7746 28.3667 36.298C28.3698 37.3877 28.0011 38.446 27.3217 39.298C26.5083 40.168 24.71 39.8396 23.78 39.1813C22.85 38.523 23.5283 37.5363 23.6633 36.9746C23.7121 36.5495 23.6164 36.1204 23.3917 35.7563C23.3991 34.9206 23.0797 34.115 22.5017 33.5113C22.0367 32.9896 21.7284 33.2596 21.38 33.5496C20.6194 34.3423 20.0094 35.2668 19.58 36.278C19.5033 36.878 21.09 38.9863 21.09 38.9863C23.3533 42.8196 21.4767 44.8496 19.8317 47.133C19.29 47.888 18.6317 48.7396 17.955 49.5713C22.0315 50.7052 26.3274 50.7975 30.4487 49.8396C34.5701 48.8817 38.385 46.9043 41.5435 44.0888C44.702 41.2733 47.1031 37.7099 48.5264 33.7253C49.9498 29.7406 50.3499 25.4624 49.69 21.283C48.9567 23.3146 47.4267 24.3596 46.6133 24.3013ZM39.88 29.893C38.1583 30.5896 37.3267 28.983 36.92 28.1713C36.5133 27.3596 35.5067 26.023 35.1783 25.3846C34.9369 24.5121 34.9369 23.5905 35.1783 22.718C35.3333 21.9046 35.7783 22.138 36.1067 22.3113C36.6725 22.4738 37.2289 22.6675 37.7733 22.8913C39.1938 23.8402 40.3678 25.1136 41.1983 26.6063C41.4047 26.8931 41.5353 27.2274 41.5781 27.5781C41.6208 27.9289 41.5743 28.2848 41.4428 28.6127C41.3113 28.9407 41.0991 29.2302 40.8259 29.4543C40.5527 29.6783 40.2274 29.8282 39.88 29.893Z" fill="white"/>
<path d="M33.535 7.4087C33.0333 6.90786 32.5036 6.43599 31.9483 5.99537C31.5323 5.83424 31.0724 5.82715 30.6517 5.97536L29.375 6.84537C28.924 7.23666 28.5799 7.73619 28.375 8.29703C28.3157 8.93179 28.4938 9.56599 28.875 10.077C29.185 10.577 29.5917 11.4904 30.5 10.987C31.5566 10.2273 32.5468 9.37925 33.46 8.45203C33.8067 8.1437 33.9617 7.75703 33.535 7.4087Z" fill="white"/>
<path d="M21.6217 27.7197C21.815 27.8864 22.5117 28.3964 23.455 27.4481C24.3983 26.4997 24.77 26.0164 25.1967 25.5714C25.6234 25.1264 26.2617 24.4047 25.9317 23.7531C25.6017 23.1014 24.8667 22.1281 23.7834 22.6114C23.0568 22.9213 22.3738 23.3247 21.7517 23.8114L21.23 24.2764C20.966 24.5433 20.7783 24.8761 20.6865 25.2402C20.5948 25.6042 20.6023 25.9862 20.7083 26.3464C20.8224 26.9056 21.15 27.3983 21.6217 27.7197Z" fill="white"/>
<path d="M21.17 20.8553C21.77 20.217 21.5034 19.927 21.035 19.2303C20.5667 18.5337 19.6417 18.437 18.2867 18.5537C17.7881 18.6321 17.3218 18.8499 16.9417 19.182C16.5616 19.514 16.2831 19.9468 16.1384 20.4303C15.956 20.887 15.8513 21.3708 15.8284 21.862C16.1014 22.6576 16.633 23.3388 17.3384 23.797C17.9967 24.1453 18.5567 23.7203 19.1967 22.8687C19.8103 22.1557 20.4695 21.4831 21.17 20.8553Z" fill="white"/>
</g>
<defs>
<clipPath id="clip0_345_141">
<rect width="50" height="50" fill="white" transform="translate(0 0.5)"/>
</clipPath>
</defs>
</svg>

<svg xmlns="http://www.w3.org/2000/svg" width="50" height="51" fill="none"><g fill="#fff" clip-path="url(#a)"><path d="M19.155 29.695a1.57 1.57 0 0 0-.333-1.567c-.272-.166-.755-.852-1.374-.31-.618.542-.813 1-1.2 1.167q-.458.196-.89.445a.968.968 0 0 0-.676 1.297 9.2 9.2 0 0 0 2.128 2.438c.522.348 1.452-.213 1.645-.91.16-.872.394-1.729.7-2.56M15.797 42.977a38 38 0 0 0-4.084 3.695q1.454.915 3.019 1.625a20.5 20.5 0 0 0 2.553-3.349c.717-1.508-.715-2.416-1.488-1.971M11.982 35.026c-.967-.833-.987-1.065-1.915-.521-.929.543-.89.31-1.122.521s-3.018 2.942-3.522 3.425L4.32 39.476a25 25 0 0 0 1.667 2.187 56 56 0 0 1 2.206-2.187 11 11 0 0 1 2.149-1.818c.518-.12.994-.381 1.373-.755.707-.58 1.23-1.025.267-1.877M6.56 29.871c-.522.407-4.025 3.639-4.76 4.277l-.193.155q.557 1.482 1.296 2.883c.349-.406.677-.793.929-1.045.561-.541 2.883-2.806 3.753-3.5.87-.693 1.065-1.166.697-1.876-.369-.71-1.199-1.3-1.722-.894M30.975 15.74c.097-.425-.445-1.122-.91-.833-.465.288-1.297 1.238-2.09 1.935s-1.607 1.355-1.607 1.355a15.4 15.4 0 0 0-1.431 1.955c-.272.425-.29.716.155.91.445.193 2.206-.077 3.27.62 1.063.697 1.666.833 2.051.6s.272-.87.077-1.51a9.4 9.4 0 0 1 .29-3.333q.172-.841.195-1.699M15.287 38.72a1.65 1.65 0 0 0-1.859-1.333c-.755.193-1.355 1.238-1.355 1.238s-1.741 1.587-2.748 2.459l-2.088 1.873q1.01 1.027 2.128 1.935.86-1.051 1.833-2c.5-.445 2.245-2.148 2.709-2.418s1.611-.807 1.38-1.754M40.073 6.155c-.333.29-1.451 1.219-1.586 1.394s-.755.6.31 1.238a5.4 5.4 0 0 0 3.018.793 9.8 9.8 0 0 1 2.845.639 25.4 25.4 0 0 0-4.392-4.394 1 1 0 0 1-.193.334zM3.947 26.778a15.6 15.6 0 0 1 3.773-2.945c1.51-.793 2.207-.135 3.212.62s1.276.58 1.833.02.272-1.218.368-2.11c.097-.892.097-3.348.272-4.548s.02-1.704 1.065-2.632 2.38-.735 3.89-.658c1.379.185 2.715.611 3.947 1.258a8.3 8.3 0 0 0 2 .948 1.29 1.29 0 0 0 1.276-.87c.077-.29-.096-1.703 0-2.206.097-.504.077-2.98.097-3.405-.019-2.01.294-4.009.925-5.917.483-1.393.638-1.667 1.238-1.645s2.612-.188 4.412-.138q2.247.203 4.45.696A25.275 25.275 0 0 0 .333 29.855c1.775-1.47 3.44-2.922 3.614-3.077M34.468 15.922a.708.708 0 0 0 1.142.166c.5-.425 2.148-2.051 2.535-2.333s.833-.658.445-1.083a8.2 8.2 0 0 0-2.148-1.607c-.387-.058-.794-.31-1.167.077-.373.386-1.393 1.276-1.393 1.276a2.45 2.45 0 0 0-.484 1.587 5.5 5.5 0 0 0 1.07 1.917M46.613 24.301a3.4 3.4 0 0 1-2.07-.968c-.682-.8-1.249-1.693-1.683-2.652-.465-.91-1.703-1.818-1.935-2.438s.31-.445.948-.425l.852-.213c.407-.135 1.528-.58 2.225-.91a8.3 8.3 0 0 0 1.935-1.122l.89-.697a25 25 0 0 0-1.818-3.333c-.31.5-2.284 1.297-2.594 1.51a23 23 0 0 1-1.78 1.49c-.642.418-1.322.774-2.031 1.065a34 34 0 0 0-3.194 3.135c-.465.445-1.103.968-1.47 1.393-.366.425-.406.987-1.166 1.567-.214.167-.349.465-.542.62a8 8 0 0 0-.813.542c-.272.251-1 .096-1.219.29a1.33 1.33 0 0 0-.5 1.413c0 .425-.658.755-.773 1.025s-.29.948-.038 1.258c.251.31.696 1.142 1.355 1.432a11.3 11.3 0 0 1 2.38 1.877c.813.755.89 1.141.676 2.438a2.075 2.075 0 0 1-2.728 1.393c-1.065-.29-1.393-1.586-1.528-2.666a18.6 18.6 0 0 0-1.084-3.58.916.916 0 0 0-1.451-.465 35 35 0 0 0-3.754 3.618 1.82 1.82 0 0 0-.425 2.11c.155.562.89 1.025 1.239 1.355.749.462 1.564.808 2.418 1.025.62.155 1.373.387 1.432.91a4.8 4.8 0 0 1-1.045 3c-.814.87-2.612.542-3.542-.117-.93-.658-.252-1.645-.117-2.206a1.9 1.9 0 0 0-.271-1.219 3.2 3.2 0 0 0-.89-2.245c-.465-.521-.774-.251-1.122.039a9 9 0 0 0-1.8 2.728c-.077.6 1.51 2.708 1.51 2.708 2.263 3.834.387 5.864-1.258 8.147a52 52 0 0 1-1.877 2.438A25.272 25.272 0 0 0 49.69 21.283c-.733 2.032-2.263 3.077-3.077 3.018m-6.733 5.592c-1.722.697-2.553-.91-2.96-1.722s-1.413-2.148-1.742-2.786a5 5 0 0 1 0-2.667c.155-.813.6-.58.929-.407q.85.245 1.666.58a10.76 10.76 0 0 1 3.425 3.715 2.1 2.1 0 0 1-.372 2.848 2.1 2.1 0 0 1-.946.439"/><path d="M33.535 7.409q-.753-.752-1.587-1.414a1.87 1.87 0 0 0-1.296-.02l-1.277.87c-.451.392-.795.891-1 1.452-.06.635.119 1.269.5 1.78.31.5.717 1.413 1.625.91a23 23 0 0 0 2.96-2.535c.347-.308.502-.695.075-1.043M21.622 27.72c.193.166.89.676 1.833-.272s1.315-1.432 1.742-1.877c.426-.445 1.065-1.166.735-1.818s-1.065-1.625-2.149-1.142c-.726.31-1.41.714-2.031 1.2l-.522.465a2.1 2.1 0 0 0-.522 2.07c.114.56.442 1.052.914 1.374M21.17 20.855c.6-.638.333-.928-.135-1.625-.468-.696-1.393-.793-2.748-.676a2.68 2.68 0 0 0-2.149 1.876c-.182.457-.287.94-.31 1.432a3.76 3.76 0 0 0 1.51 1.935c.659.348 1.219-.077 1.859-.928a22 22 0 0 1 1.973-2.014"/></g><defs><clipPath id="a"><path fill="#fff" d="M0 .5h50v50H0z"/></clipPath></defs></svg>
